X: 21693
T: The EDINBURGH HORNPIPE
%R: hornpipe, reel
B: W. Hamilton "Universal Tune-Book" Vol. 2 Glasgow 1846 p.169 #2
S: http://s3-eu-west-1.amazonaws.com/itma.dl.printmaterial/book_pdfs/hamiltonvol2web.pdf
Z: 2016 John Chambers <jc:trillian.mit.edu>
M: C|
L: 1/8
K: G
% - - - - - - - - - - - - - - - - - - - - - - - - -
(Bc) |\
d3g  edcB | dgfg edcB |\
DGBG DGBG | DGBd cBAG |\
d3g  edcB | dgfg edcB |\
gfgd ecAF | G2G2 G2 :|
|: (Bc) |\
   d3e edcB  | e2e2 e4 |\
{B}c3e dBGB  | dgfa ggg2 |\
  dBdg eceg  | fdef g>fga |\
 g>fed c>AFD | G2G2 G2 :|
% - - - - - - - - - - - - - - - - - - - - - - - - -

%%sep 1 1 500
%%sep 1 1 500

